X:97
T:Compadres in the Old Sierra Madre
C:Watson Bridge - Orion
N:Mandolin: Dorian Ricaud - Transcribed by Philippe Colleu
R:bluegrass
L:1/8
Q:1/4=180
M:4/4
K:C
"105 bpm"zc/A/ Gc AG ^D/=D/C | "Am"A,2 A,2 A,B, CE | Ac dd eg "2"e/d/c | "F7"{d}"3"^d4 z2 d/=d/c | 
B4 zc/B/ Ac | "Dm"AG cG AG ED | "E7"(3^DEA (3DEA (3D=DC A,G, | "Am"(3A,CD (3A,CD EE (3zCA, | 
"F7"cc (3zGE "E7"gg (3zdB | "Am"az3 G,g ac' | ae ae ^d/=d/c Ac | "F7"B4 zc/B/ Ac | 
BG AG AA G/A3/2 | "Dm"d/c/A (3cd^d eg a(3c'z | "E7"e'2 {g}ac' d'a d'/^d'/=d' | 
"Am"c'a g{d}e ae ge | ^d/=d/c Ac e2 c2 | "Dm7"B8 | 


